packages/core/src/svgs/tokens/mono/ROOK.svg

<svg width="24" height="24" viewBox="0 0 24 24" fill="none" xmlns="http://www.w3.org/2000/svg">
<path fill-rule="evenodd" clip-rule="evenodd" d="M6.00001 2H2V6.00001H6.00001V22H18V6.00001H22V2H18V6.00001H14.0001V2H9.99995V6.00001H6.00001V2ZM9.99995 10.0001H14.0001V14.0001H9.99995V10.0001Z" fill="white"/>
</svg>

<svg xmlns="http://www.w3.org/2000/svg" width="24" height="24" fill="none" viewBox="0 0 24 24">
    <path fill="#fff" fill-rule="evenodd" d="M6 2H2v4h4v16h12V6h4V2h-4v4h-4V2h-4v4H6zm4 8h4v4h-4z" clip-rule="evenodd"/>
</svg>
